src/Include/images/title.svg

<?xml version="1.0" encoding="UTF-8" standalone="no"?>
<svg
   height="32px"
   version="1.1"
   viewBox="0 0 32 32"
   width="32px"
   id="svg11"
   sodipodi:docname="title.svg"
   inkscape:export-filename="D:\AgilityBook\AgilityBook\src\Include\images\title_visible@2x.png"
   inkscape:export-xdpi="96"
   inkscape:export-ydpi="96"
   inkscape:version="1.1.1 (3bf5ae0d25, 2021-09-20)"
   xmlns:inkscape="http://www.inkscape.org/namespaces/inkscape"
   xmlns:sodipodi="http://sodipodi.sourceforge.net/DTD/sodipodi-0.dtd"
   xmlns="http://www.w3.org/2000/svg"
   xmlns:svg="http://www.w3.org/2000/svg">
  <sodipodi:namedview
     id="namedview13"
     pagecolor="#ffffff"
     bordercolor="#666666"
     borderopacity="1.0"
     inkscape:pageshadow="2"
     inkscape:pageopacity="0.0"
     inkscape:pagecheckerboard="0"
     showgrid="false"
     inkscape:zoom="13.640625"
     inkscape:cx="8.9438717"
     inkscape:cy="19.317297"
     inkscape:window-width="1664"
     inkscape:window-height="1111"
     inkscape:window-x="296"
     inkscape:window-y="830"
     inkscape:window-maximized="0"
     inkscape:current-layer="svg11" />
  <title
     id="title2" />
  <desc
     id="desc4" />
  <defs
     id="defs6" />
  <g
     fill="none"
     fill-rule="evenodd"
     id="Page-1"
     stroke="none"
     stroke-width="1">
    <g
       fill="#157EFB"
       id="icon-33-award">
      <path
         d="M15.626362,20.9921584 L11.6014826,31.4773277 L9.87584513,27.6014826 L6,29.32712 L9.97789993,18.9643364 C11.5584809,20.1664891 13.5077558,20.9088828 15.6263658,20.9921585 L15.626362,20.9921584 L15.626362,20.9921584 Z M22.0742057,18.9643364 L26.0521057,29.32712 L22.1762605,27.6014826 L20.4506231,31.4773277 L16.4257437,20.9921584 C18.5443498,20.9088828 20.4936248,20.1664891 22.0742057,18.9643364 L22.0742057,18.9643364 L22.0742057,18.9643364 Z M16.0260528,20 C20.9966156,20 25.0260528,15.9705627 25.0260528,11 C25.0260528,6.02943725 20.9966156,2 16.0260528,2 C11.0554901,2 7.02605283,6.02943725 7.02605283,11 C7.02605283,15.9705627 11.0554901,20 16.0260528,20 L16.0260528,20 Z M16.0260528,17 C19.3397613,17 22.0260528,14.3137085 22.0260528,11 C22.0260528,7.6862915 19.3397613,5 16.0260528,5 C12.7123443,5 10.0260528,7.6862915 10.0260528,11 C10.0260528,14.3137085 12.7123443,17 16.0260528,17 L16.0260528,17 Z M16.0260528,16 C18.7874766,16 21.0260528,13.7614237 21.0260528,11 C21.0260528,8.23857625 18.7874766,6 16.0260528,6 C13.2646291,6 11.0260528,8.23857625 11.0260528,11 C11.0260528,13.7614237 13.2646291,16 16.0260528,16 L16.0260528,16 Z"
         id="award" />
    </g>
  </g>
</svg>

<?xml version="1.0" encoding="UTF-8"?>
<svg width="32px" height="32px" version="1.1" viewBox="0 0 32 32" xmlns="http://www.w3.org/2000/svg">
 <g fill="none" fill-rule="evenodd">
  <g id="icon-33-award" fill="#157EFB">
   <path id="award" d="m15.626 20.992-4.0249 10.485-1.7256-3.8758-3.8758 1.7256 3.9779-10.363c1.5806 1.2022 3.5299 1.9445 5.6485 2.0278l-3.8e-6 -1e-7zm6.4478-2.0278 3.9779 10.363-3.8758-1.7256-1.7256 3.8758-4.0249-10.485c2.1186-0.083276 4.0679-0.82567 5.6485-2.0278zm-6.0482 1.0357c4.9706 0 9-4.0294 9-9 0-4.9706-4.0294-9-9-9-4.9706 0-9 4.0294-9 9 0 4.9706 4.0294 9 9 9zm0-3c3.3137 0 6-2.6863 6-6s-2.6863-6-6-6-6 2.6863-6 6 2.6863 6 6 6zm0-1c2.7614 0 5-2.2386 5-5 0-2.7614-2.2386-5-5-5-2.7614 0-5 2.2386-5 5 0 2.7614 2.2386 5 5 5z"/>
  </g>
 </g>
</svg>
